icons/Map/barricade-line.svg

<svg viewBox="0 0 24 24" xmlns="http://www.w3.org/2000/svg"><path d="M6.49323 19H17.5068L16.8401 16H7.1599L6.49323 19ZM19.5556 19H21V21H3V19H4.44444L7.82598 3.78307C7.92766 3.32553 8.33347 3 8.80217 3H15.1978C15.6665 3 16.0723 3.32553 16.174 3.78307L19.5556 19ZM7.60434 14H16.3957L15.5068 10H8.49323L7.60434 14ZM8.93768 8H15.0623L14.3957 5H9.60434L8.93768 8Z"/></svg>

<svg xmlns="http://www.w3.org/2000/svg" viewBox="0 0 24 24">
    <g>
        <path fill="none" d="M0 0h24v24H0z"/>
        <path d="M6.493 19h11.014l-.667-3H7.16l-.667 3zm13.063 0H21v2H3v-2h1.444L7.826 3.783A1 1 0 0 1 8.802 3h6.396a1 1 0 0 1 .976.783L19.556 19zM7.604 14h8.792l-.89-4H8.494l-.889 4zm1.334-6h6.124l-.666-3H9.604l-.666 3z"/>
    </g>
</svg>
